src/assets/icons/quotes.svg

<svg width="26" height="26" viewBox="0 0 26 26" fill="none" xmlns="http://www.w3.org/2000/svg">
<g clip-path="url(#clip0_115_373)">
<rect width="26" height="26" fill="white"/>
<path d="M26 0.226349L25.3882 4.70606C23.7976 4.58333 22.6353 4.91061 21.9012 5.68791C21.1671 6.46521 20.7184 7.50843 20.5553 8.81756C20.3922 10.1267 20.3514 11.5381 20.4329 13.0518H26V26H15.5388V10.5972C15.5388 6.8334 16.4769 4.01058 18.3529 2.12869C20.2698 0.246805 22.8188 -0.387309 26 0.226349ZM10.4612 0.226349L9.84941 4.70606C8.25882 4.58333 7.09647 4.91061 6.36235 5.68791C5.62824 6.46521 5.17961 7.50843 5.01647 8.81756C4.85333 10.1267 4.81255 11.5381 4.89412 13.0518H10.4612V26H0V10.5972C0 6.8334 0.938039 4.01058 2.81412 2.12869C4.73098 0.246805 7.28 -0.387309 10.4612 0.226349Z" fill="#404347"/>
</g>
<defs>
<clipPath id="clip0_115_373">
<rect width="26" height="26" fill="white"/>
</clipPath>
</defs>
</svg>

<svg xmlns="http://www.w3.org/2000/svg" width="26" height="26" fill="none"><g clip-path="url(#a)"><path fill="#404347" d="m26 .226-.612 4.48c-1.59-.123-2.753.205-3.487.982s-1.183 1.82-1.346 3.13c-.163 1.309-.204 2.72-.122 4.234H26V26H15.539V10.597c0-3.764.938-6.586 2.814-8.468C20.27.247 22.819-.387 26 .226Zm-15.539 0-.612 4.48c-1.59-.123-2.753.205-3.487.982s-1.182 1.82-1.346 3.13c-.163 1.309-.203 2.72-.122 4.234h5.567V26H0V10.597C0 6.833.938 4.011 2.814 2.13 4.731.247 7.28-.387 10.461.226Z"/></g><defs><clipPath id="a"><path fill="#fff" d="M0 0h26v26H0z"/></clipPath></defs></svg>
